assets/fa/fa-head-side-cough-slash.svg

<svg xmlns="http://www.w3.org/2000/svg" width="100%" height="100%" viewBox="-54.4 -118.4 748.8 748.8"><path d="M454.11 319.21c19.56-3.81 31.62-25 23.11-44.21-21-47.12-48.5-151.75-73.12-186.75A208.13 208.13 0 00234.1 0H192A190.64 190.64 0 0084.18 33.3L45.46 3.38A16 16 0 0023 6.19L3.37 31.46a16 16 0 002.81 22.45l588.35 454.72a16 16 0 0022.47-2.81l19.64-25.27a16 16 0 00-2.81-22.45zM313.39 210.45L263.61 172c5.88-7.14 14.43-12 24.36-12a32.06 32.06 0 0132 32c.03 7-2.73 13.17-6.58 18.45zM616 304a24 24 0 10-24-24 24 24 0 0024 24zm-64 64a24 24 0 10-24-24 24 24 0 0024 24zm-264 16a32 32 0 0132-32h19.54L20.73 105.59A190.86 190.86 0 000 192c0 56.75 24.75 107.62 64 142.88V512h224v-32h64a64 64 0 0064-64h-96a32 32 0 01-32-32zm328-24a24 24 0 1024 24 24 24 0 00-24-24z"/></svg>

<svg xmlns="http://www.w3.org/2000/svg" width="100%" height="100%" viewBox="-54.4 -118.4 748.8 748.8"><path d="M454.11,319.21c19.56-3.81,31.62-25,23.11-44.21-21-47.12-48.5-151.75-73.12-186.75A208.13,208.13,0,0,0,234.1,0H192A190.64,190.64,0,0,0,84.18,33.3L45.46,3.38A16,16,0,0,0,23,6.19L3.37,31.46A16,16,0,0,0,6.18,53.91L594.53,508.63A16,16,0,0,0,617,505.82l19.64-25.27a16,16,0,0,0-2.81-22.45ZM313.39,210.45,263.61,172c5.88-7.14,14.43-12,24.36-12a32.06,32.06,0,0,1,32,32C320,199,317.24,205.17,313.39,210.45ZM616,304a24,24,0,1,0-24-24A24,24,0,0,0,616,304Zm-64,64a24,24,0,1,0-24-24A24,24,0,0,0,552,368ZM288,384a32,32,0,0,1,32-32h19.54L20.73,105.59A190.86,190.86,0,0,0,0,192c0,56.75,24.75,107.62,64,142.88V512H288V480h64a64,64,0,0,0,64-64H320A32,32,0,0,1,288,384Zm328-24a24,24,0,1,0,24,24A24,24,0,0,0,616,360Z"/></svg>
